<?xml version="1.0" encoding="UTF-8"?>
<map version="1.10" tiledversion="1.11.2" orientation="orthogonal" renderorder="right-down" width="16" height="16" tilewidth="64" tileheight="64" infinite="0" nextlayerid="2" nextobjectid="1">
 <tileset firstgid="1" name="grass" tilewidth="64" tileheight="64" tilecount="16" columns="4">
  <image source="grass.png" width="256" height="256"/>
 </tileset>
 <layer id="1" name="Ground" width="16" height="16">
  <data encoding="csv">
1,2,1,3,1,2,4,1,2,1,3,1,2,4,1,2,
2,1,11,15,12,1,2,3,1,4,2,1,15,15,3,1,
1,3,15,15,11,12,1,2,4,1,3,11,12,1,2,4,
2,1,12,1,15,15,11,1,2,3,1,15,15,12,1,2,
1,4,1,2,12,15,15,11,1,2,4,11,15,15,3,1,
3,1,2,4,1,11,15,12,2,1,11,15,12,1,2,4,
1,2,4,1,3,1,12,15,1,11,15,12,1,3,4,1,
2,1,3,2,1,4,1,2,3,15,12,1,4,2,1,3,
1,4,2,1,3,1,2,4,1,11,15,12,1,3,2,1,
3,1,11,12,1,2,4,1,15,15,12,1,2,4,1,3,
1,2,15,15,12,1,3,11,15,12,1,4,1,2,3,1,
2,1,3,15,15,11,12,15,12,1,2,3,4,1,2,4,
1,4,2,1,15,15,11,12,1,3,4,1,11,15,12,1,
3,1,4,2,1,11,15,15,12,1,2,11,15,12,1,3,
1,2,3,1,4,2,1,15,15,12,1,15,12,1,3,2,
2,1,4,2,1,3,2,1,11,15,12,1,2,4,1,3
</data>
 </layer>
</map>
